X:1
T:Title
%%score { ( 1 4 ) | ( 2 3 ) }
L:1/8
M:4/4
K:Bb
V:1 treble nm="Grand Piano"
V:4 treble 
V:2 bass 
V:3 bass 
V:1
 z4 z2[Q:1/4=100] [B,D][CE] | [DF]2 [_D=E][=DF] [Fd]2 [Fc][FB] | G2 B4 G2 | F2 FF G2 FE | D6 DE | %5
 [DF]2 [_D=E][=DF] [Fd]2 [Fc][FB] |[M:3/4] [EG]2 [GB]4 |[M:1/4] [FB]2 | %8
[M:4/4] [=Ec]2 [EB][EB] [EA] [EA]2 [EG] |[M:5/4] F2- F2- F6 |[M:4/4] [Fd]4 [Ge]3 [Fd] | d c2 c F4 | %12
 c4 d3 c | [Ec] [DB]2 [Ec] [Fd]2 [DF][DF] | [EG]2 [EG][FA] [GB]2 [FA][EG] | [DF]2 [Fd]4 [Fd]2 | %16
 [=Ec]2 [EB][EB] [_EA] [EA]2 [DB] |[M:3/4] [DB]6 |] %18
V:2
 z4 z2 [B,,F,][B,,F,] | [B,,B,]2 [B,,B,][B,,B,] [B,,B,]2 [C,A,][D,B,] | %2
 [E,B,E]2 [E,G,E]4 [E,B,E]2 | [F,B,D]2 [F,B,D][F,B,D] [F,A,E]2 [F,A,C][F,C] | z4 z2 .B,2 | %5
 [B,,B,]2 [B,,B,][B,,B,] [B,,B,]2 [C,A,][D,B,] |[M:3/4] [E,B,]2 [E,B,]4 |[M:1/4] [D,B,]2 | %8
[M:4/4] [C,B,]2 [C,G,][C,G,] [C,C] [C,C]2 [C,B,] |[M:5/4] [F,A,]2 [F,B,]2 [F,C]6 | %10
[M:4/4] [B,,B,]4 [B,,B,]3 [B,,B,] | [F,B,F] [F,A,E]2 [F,A,E] [D,F,A,E]4 | %12
 [F,A,E]4 [F,A,F]3 [F,A,E] | [B,,B,] [B,,B,]2 [B,,B,] [B,,B,]2 [B,,B,][B,,B,] | %14
 [E,B,]2 [E,B,][E,B,] [E,B,]2 [E,B,][E,B,] | [B,,B,]2 [B,,B,]4 [B,,B,]2 | %16
 [C,B,]2 [C,G,][C,C] [F,C] [F,C]2 [B,,B,] |[M:3/4] [B,,B,]6 |] %18
V:3
 x8 | x8 | x8 | x8 | [B,,F,B,]6 [B,,F,]-[B,,F,C] | x8 |[M:3/4] x6 |[M:1/4] x2 |[M:4/4] x8 | %9
[M:5/4] x10 |[M:4/4] x8 | x8 | x8 | x8 | x8 | x8 | x8 |[M:3/4] x6 |] %18
V:4
 x8 | x8 | x8 | x8 | x8 | x8 |[M:3/4] x6 |[M:1/4] x2 |[M:4/4] x8 |[M:5/4] z2 D2 E6 |[M:4/4] x8 | %11
 x8 | x8 | x8 | x8 | x8 | x8 |[M:3/4] x6 |] %18

